assets/sonr-icons/evmos.svg

<svg xmlns="http://www.w3.org/2000/svg" width="24" height="24" fill="none" viewBox="0 0 24 24"><path fill="#000" d="M9.49299 5.40903C5.58899 6.91003 5.23099 10.754 4.11199 12.55C2.97999 14.367 0.383994 15.369 0.738994 16.295C1.09399 17.221 3.69199 16.226 5.74699 16.817C7.77799 17.4 10.612 20.018 14.515 18.517C16.504 17.753 17.944 16.179 18.606 14.314C18.677 14.114 18.544 13.9 18.333 13.88C18.202 13.868 18.076 13.936 18.017 14.055C17.418 15.25 16.39 16.234 15.045 16.751C12.825 17.605 10.396 16.935 8.90399 15.253C8.56499 14.871 8.27599 14.437 8.04699 13.957C7.98399 13.825 7.92399 13.691 7.87199 13.551C7.81999 13.411 7.77399 13.272 7.73199 13.132C8.90499 12.584 10.259 12.004 11.794 11.414C13.299 10.835 14.669 10.366 15.888 9.99003C16.713 9.73703 17.469 9.52503 18.152 9.35303C18.201 9.34103 18.25 9.32803 18.298 9.31603C18.402 9.29003 18.507 9.34603 18.545 9.44503L18.546 9.44703C18.569 9.50603 18.588 9.56603 18.609 9.62503C18.744 10.008 18.845 10.395 18.912 10.782C18.941 10.951 19.127 11.044 19.278 10.962C19.838 10.661 20.351 10.366 20.809 10.084C22.516 9.03103 23.463 8.13803 23.268 7.63203C23.073 7.12603 21.774 7.09703 19.802 7.45803C19.175 7.57303 18.48 7.72703 17.732 7.91803C17.602 7.95103 17.472 7.98603 17.339 8.02103C16.709 8.18803 16.045 8.38003 15.352 8.59503C14.065 8.99403 12.684 9.47203 11.258 10.021C9.924 10.534 8.65999 11.066 7.50099 11.595C7.48699 9.34603 8.84399 7.22003 11.064 6.36703C12.409 5.85003 13.83 5.89203 15.073 6.37903C15.196 6.42703 15.336 6.39403 15.425 6.29703C15.569 6.14103 15.525 5.89303 15.338 5.79203C13.6 4.85103 11.478 4.64703 9.48999 5.41103L9.49299 5.40903Z"/></svg>

<svg xmlns="http://www.w3.org/2000/svg" width="24" height="24" fill="none"><path fill="currentColor" d="M9.493 5.409C5.589 6.91 5.231 10.754 4.112 12.55 2.98 14.367.384 15.369.739 16.295s2.953-.069 5.008.522c2.031.583 4.865 3.201 8.768 1.7a7 7 0 0 0 4.091-4.203.325.325 0 0 0-.273-.434.32.32 0 0 0-.316.175 5.546 5.546 0 0 1-10.285-.923 63 63 0 0 1 4.062-1.718 64 64 0 0 1 4.094-1.424 47 47 0 0 1 2.264-.637l.146-.037a.21.21 0 0 1 .247.129l.001.002q.033.089.063.178.203.576.303 1.157a.25.25 0 0 0 .366.18c.56-.301 1.073-.596 1.531-.878 1.707-1.053 2.654-1.946 2.459-2.452s-1.494-.535-3.466-.174c-.627.115-1.322.269-2.07.46q-.194.05-.393.103-.946.251-1.987.574a65 65 0 0 0-4.094 1.426 67 67 0 0 0-3.757 1.574 5.56 5.56 0 0 1 3.563-5.228 5.52 5.52 0 0 1 4.009.012.32.32 0 0 0 .352-.082.324.324 0 0 0-.087-.505 6.99 6.99 0 0 0-5.848-.381z"/></svg>
